assets/fonts/svg-files-for-custom-font/warning.svg

<svg enable-background="new 0 0 20 20" viewBox="0 0 20 20" xmlns="http://www.w3.org/2000/svg"><path d="m19.511 17.98-8.907-16.632c-.124-.215-.354-.348-.604-.348-.251 0-.481.133-.604.348l-8.906 16.632c-.121.211-.119.471.005.68.125.211.352.34.598.34h17.814c.245 0 .474-.129.598-.34.124-.209.126-.469.006-.68zm-8.511-.98h-2v-2h2zm0-3.5h-2v-6.5h2z"/></svg>

<?xml version="1.0" encoding="utf-8"?>
<!-- Generator: Adobe Illustrator 18.1.1, SVG Export Plug-In . SVG Version: 6.00 Build 0)  -->
<!DOCTYPE svg PUBLIC "-//W3C//DTD SVG 1.1//EN" "http://www.w3.org/Graphics/SVG/1.1/DTD/svg11.dtd">
<svg version="1.1" id="Warning" xmlns="http://www.w3.org/2000/svg" xmlns:xlink="http://www.w3.org/1999/xlink" x="0px" y="0px"
	 viewBox="0 0 20 20" enable-background="new 0 0 20 20" xml:space="preserve">
<path d="M19.511,17.98L10.604,1.348C10.48,1.133,10.25,1,10,1C9.749,1,9.519,1.133,9.396,1.348L0.49,17.98
	c-0.121,0.211-0.119,0.471,0.005,0.68C0.62,18.871,0.847,19,1.093,19h17.814c0.245,0,0.474-0.129,0.598-0.34
	C19.629,18.451,19.631,18.191,19.511,17.98z M11,17H9v-2h2V17z M11,13.5H9V7h2V13.5z"/>
</svg>
